css/pseudoelements/demos/header-veil/images/background.svg

<svg xmlns="http://www.w3.org/2000/svg" fill="none" viewBox="0 0 1120 753"><path fill="#282A2E" d="M0 0h1120v752H0z"/><path fill="#1A5AD7" d="M0 298h1120v454H0z"/><ellipse cx="770.375" cy="149.081" fill="#1A5AD7" rx="151.375" ry="149.081" transform="rotate(-180 770.375 149.081)"/><path fill="#282A2E" d="M770.375 454.125C686.773 454.125 619 521.898 619 605.5h302.75c0-83.602-67.773-151.375-151.375-151.375zM770.375 605.5C686.773 605.5 619 671.219 619 752.288h302.75c0-81.069-67.773-146.788-151.375-146.788zM770.375 298.163C686.773 298.163 619 367.989 619 454.125h302.75c0-86.136-67.773-155.962-151.375-155.962z"/></svg>

<svg width="1120" height="753" viewBox="0 0 1120 753" fill="none" xmlns="http://www.w3.org/2000/svg">
<g clip-path="url(#clip0_1666_243)">
<path d="M0 0H1120V752H0V0Z" fill="#123E66"/>
<path d="M0 298H1120V752H0V298Z" fill="#2E9AFF"/>
<path d="M770.375 0.00012207C686.773 0.00012207 619 66.746 619 149.081C619 231.416 686.773 298.162 770.375 298.162C853.977 298.162 921.75 231.416 921.75 149.081C921.75 66.746 853.977 0.00012207 770.375 0.00012207Z" fill="#2E9AFF"/>
<path d="M770.375 454.125C686.773 454.125 619 521.898 619 605.5H921.75C921.75 521.898 853.977 454.125 770.375 454.125ZM770.375 605.5C686.773 605.5 619 671.219 619 752.288H921.75C921.75 671.219 853.977 605.5 770.375 605.5ZM770.375 298.163C686.773 298.163 619 367.989 619 454.125H921.75C921.75 367.989 853.977 298.163 770.375 298.163Z" fill="#123E66"/>
</g>
<defs>
<clipPath id="clip0_1666_243">
<rect width="1120" height="753" fill="white"/>
</clipPath>
</defs>
</svg>
